X:1
T:Domine, spes mea
T:Constantijn Huygens
T:Domine, spes mea
T:Psalmus 71:5b,9,22
C:Constantijn Huygens
%%score 1 { ( 2 4 ) | 3 }
L:1/8
Q:1/4=78
M:4/4
K:C
V:1 treble nm="Soprano" snm="S"
V:2 treble nm="Organ" snm="Org."
V:4 treble 
V:3 bass 
V:1
 A>A Ae e4 | ^c4 z ddd | e2 A2 z AAA | d6 e2 | c2 A2 c4- | ccBB A2 AA | B2 AA !fermata!^G=G G>G | %7
w: Do- mi- ne, spes me-|a a ju- ven-|tu- te, a ju- ven-|tu- te|me- a, ne|_ pro- ji- ci- as, ne pro-|ji- ci- as me in tem- po-|
 G2 F>F F2 EE | E2 D2 E4 :: z2 B4 A2 | GF E2 e2 c2 | BA ^G4 A2 | GF E2 B2 d2 | c2 A2 d4- | d4 ^c4 | %15
w: re, tem- po- re se- nec-|tu- * tis.|Cum de-|fe- ce- rit, cum de-|fe- ce- rit, de-|fe- ce- rit vir- tus|me- * *|* a,|
 z2 d4 AA | B2 B2 B4- | B2 AG ^FF d2- | d2 de ^f2 B2 | z g^fe e3 ^d |[M:3/4] e4 ee | e2 dd f2 | %22
w: ne de- re-|lin- quas, ne|_ de- re- lin- quas, ne|_ de- re- lin- quas,|ne de- re- lin- quas|me. Nam et|e- go, et e-|
[M:4/4] e2 AA A2 A2 | z2 EE F2 G2 | A4 A4 | z EE^F G2 E2 | z EGA BBB^c | d6 B2 | B8 | ^G8 | %30
w: go con- fi- te- bor,|con- fi- te- bor|ti- bi|in va- sis psal- mi,|in va- sis psal- mi ve- ri-|ta- tem|tu-|am.|
[M:3/4] c2 A2 cc | d3 d e2 | A2 z f e>d | d2 z d ^d>d |[M:4/4] e4 z2 A2- | A2 A2 A2 A2 | z2 A4 A2 | %37
w: De- us, De- us,|psal- lam ti-|bi in ci- tha-|ra, in ci- tha-|ra, sanc-|* tus, sanc- tus,|sanc- tus|
 A4 ^G2 A2 | A8 :| %39
w: Is- * ra-|ël.|
V:2
 [CE-A]4 [EB]4 | [EA-]4 [DA]4 | [EA]4 [D^F]4 | B8 | [CEA-]4 [CFA]4 | [E-G]4 [CEA]4 | F4 z E E>E | %7
 [CA]4 [B,G]4 | [CA]4 [B,^G]4 :: [E-G]4 E4 | B6 c2 | GF E6 | E8 | [CF]8 | A6 G2 | ^F4 =F4 | E4 D4 | %17
 [^CE]4 [B,D]4 | [DB-]8 | B8- |[M:3/4] [^GB]4 [=Gc]2 | [Gc]4 [Gd]2 |[M:4/4] [EA]4 [A,-F]4 | %23
 [A,-E]4 [A,F]2 [B,G]2 | E2 D2 E4 | [A,E]4 B,4 | [B,EG]4 [E^G]4 | [D^F-]4 [^DF]4 | [EG]4 [^D^F]4 | %29
 [B,E]8 |[M:3/4] [CE]6 | A6- | A6- | [DA]2 [^FB]4 |[M:4/4] B4 A4 | F4 E4 | F8 | [B,E-]8 | [^CE]8 :| %39
V:3
 A,4 ^G,4 | A,4 [D,F,]4 | ^C,4 D,2 DC | B,4 ^G,4 | A,8 | E,4 E,4 | D,2 A,,2 E,4- | E,2 A,4 G,2 | %8
 F,4 E,4 :: E4 C4 | B,A, ^G,4 A,2 | E2 E,4 C,2 | B,,A,, ^G,,4 ^G,2 | A,2 F,2 D,4 | A,4 A,,4 | D,8 | %16
 G,8 | G,2 A,2 B,4 | B,2 A,G, ^F,2 G,2- | G,2 A,2 B,2 B,,2 |[M:3/4] E,4 C,2 | C,2 G,2 D,2 | %22
[M:4/4] A,4 F,4 | ^C,4 D,4 | D,,4 A,,4 | A,2 G,^F, E,4- | E,4 E,2 D,^C, | B,,8 | B,,8 | E,8 | %30
[M:3/4] A,4 A,2 | F,2 D,2 ^C,2- | C,2 D,2 A,G, | ^F,2 B,,2 B,>A, |[M:4/4] ^G,4 A,4 | D,4 ^C,4 | %36
 D,4 A,,4 | E,8 | A,,8 :| %39
V:4
 x8 | x8 | x8 | ^F4 E4- | x8 | x8 | D4 B,4 | x8 | x8 :: x8 | E8 | B,6 C2 | B,8 | x8 | E8 | A,8 | %16
 B,8 | x8 | x8 | ^D4 G2 [D^F]2 |[M:3/4] E4 z2 | x6 |[M:4/4] x8 | x8 | B,4 C4 | x8 | x8 | x8 | x8 | %29
 x8 |[M:3/4] x6 | F4 E2 | E2 F2 E2 | x6 |[M:4/4] E8 | A,8 | D4 C4 | x8 | x8 :| %39

